!! 00000] TT[WS
!!!OTL: Gaizi shilidun
!!!ARE: Asia, China, Shanxi Dinxiang
!! Ethnic Group: Han
!! Wang Sen
!!!SCT: J0397
!!!YEM: Copyright 1995, estate of Helmut Schaffrath.
**kern
*ICvox
*Ivox
*M2/4
*k[f#]
*G:
{8.dd
16b
8a
8dd
=1
8g
8a
8e
8d
=2
8dd
8b
8a
8ee
=3
2dd}
=4
{8.dd
16b
8a
8dd
=5
8g
8a
8e
8d
=6
8dd
16a
16b
8a
8e
=7
2d
=8
8b
16a
16b
8a
8e
=9
2d}
=10
{4d
4dd
=11
8ee
8dd
8dd
8b
=12
16a
16b
16a
16g
8e
8g
=13
2a}
=14
{4d
4dd
=15
8ee
8dd
8dd
8e
=16
8.g
16a
8e
8d
=17
8ee
8dd
8dd
8e
=18
8g
8a
8e
8d}
=19
{8g
8b
8a
8g
=20
8a
8b
8a
8g
=21
16a
16b
16a
16g
16a
16b
16a
16g
=22
8e
8g
16a
16b
16a
16b
=23
8dd
8e
8g
8a
=24
2d}
==
!!!AGN: Xiaodiao, Gaizi shilidun. Xinminge, Xuanchuan
!! Neue Text. Politische Liede
!!!ONB: ESAC (Essen Associative Code) Database: CHINA
!!!AMT: simple duple
!!!AIN: vox
!!!EED: Helmut Schaffrath
!!!EEV: 1.0
*-
